X: 3831
T: Black Haired Lad, The
R: reel
M: 4/4
K: Amixolydian
|:e|Aeaf gefd|g2 dB GBdB|Aeaf gefd|g2 dB e2 A:|
e|A2 eA fAeA|g2 dB GBdB|A2 eA fAeA|g2 dB e2 Ae|
A2 eA fAeA|g2 dB GBdB|Aeaf gefd|g2 dB e2 A||

